svgs/light/expand-wide.svg

<svg xmlns="http://www.w3.org/2000/svg" viewBox="0 0 512 512"><!-- Font Awesome Pro 6.0.0-alpha2 by @fontawesome - https://fontawesome.com License - https://fontawesome.com/license (Commercial License) --><path d="M144 64H16C7.156 64 0 71.156 0 80V208C0 216.844 7.156 224 16 224S32 216.844 32 208V96H144C152.844 96 160 88.844 160 80S152.844 64 144 64ZM144 416H32V304C32 295.156 24.844 288 16 288S0 295.156 0 304V432C0 440.844 7.156 448 16 448H144C152.844 448 160 440.844 160 432S152.844 416 144 416ZM496 288C487.156 288 480 295.156 480 304V416H368C359.156 416 352 423.156 352 432S359.156 448 368 448H496C504.844 448 512 440.844 512 432V304C512 295.156 504.844 288 496 288ZM496 64H368C359.156 64 352 71.156 352 80S359.156 96 368 96H480V208C480 216.844 487.156 224 496 224S512 216.844 512 208V80C512 71.156 504.844 64 496 64Z"/></svg>

<svg xmlns="http://www.w3.org/2000/svg" viewBox="0 0 512 512"><!--! Font Awesome Pro 6.3.0 by @fontawesome - https://fontawesome.com License - https://fontawesome.com/license (Commercial License) Copyright 2023 Fonticons, Inc. --><path d="M144 64h-128C7.156 64 0 71.16 0 80v128C0 216.8 7.156 224 16 224S32 216.8 32 208V96h112C152.8 96 160 88.84 160 80S152.8 64 144 64zM144 416H32V304C32 295.2 24.84 288 16 288S0 295.2 0 304v128C0 440.8 7.156 448 16 448h128C152.8 448 160 440.8 160 432S152.8 416 144 416zM496 288C487.2 288 480 295.2 480 304V416h-112c-8.844 0-16 7.156-16 16s7.156 16 16 16h128c8.844 0 16-7.156 16-16v-128C512 295.2 504.8 288 496 288zM496 64h-128C359.2 64 352 71.16 352 80S359.2 96 368 96H480v112C480 216.8 487.2 224 496 224S512 216.8 512 208v-128C512 71.16 504.8 64 496 64z"/></svg>
